**kern	**silbe	**harmony	**chordsym	**phrase	**timestamp	**leadinstrument
*ICvox	*	*M4/4	*M4/4	*	*	*
*	*	*e:	*e:	*e:	*e:	*e:
=1	=1	=1	=1	=1	=1	=1
*G:	*	*	*	*	*	*
*M4/4	*	*	*	*	*	*
*clefF4	*	*	*	*	*	*
1r	.	1r;	r	.	0	r
=2	=2	=2	=2	=2	=2	=2
*	*	*>A_intro	*>A_intro	*>A_intro	*>A_intro	*>A_intro
1r	.	1Em	E:min (G E B)	newline	0.279	guitar
=3	=3	=3	=3	=3	=3	=3
1r	.	1Em	E:min (G E B)	.	.	guitar
=4	=4	=4	=4	=4	=4	=4
1r	.	1Em	E:min (G E B)	.	.	guitar
=5	=5	=5	=5	=5	=5	=5
1r	.	1Em	E:min (G E B)	.	.	guitar
=6	=6	=6	=6	=6	=6	=6
2r	.	1Em	E:min (G E B)	.	.	guitar
4r	.	.	.	.	.	.
4F#	I'd	.	.	.	.	.
=7	=7	=7	=7	=7	=7	=7
4E	ra-	1Em	E:min (G E B)	.	.	guitar
4D#	-ther	.	.	.	.	.
4E	be	.	.	.	.	.
4F#	a	.	.	.	.	.
=8	=8	=8	=8	=8	=8	=8
4G	spar-	1Am	A:min (C A E)	.	.	guitar
4F#	-row	.	.	.	.	.
4G	than	.	.	.	.	.
4A	a	.	.	.	.	.
=9	=9	=9	=9	=9	=9	=9
1B	snail.	1Em	E:min (B E G)	.	.	guitar
=10	=10	=10	=10	=10	=10	=10
2r	.	1r;	r	.	40.008	r
8d	Yes,	.	.	.	.	.
4.d	I	.	.	.	.	.
=11	=11	=11	=11	=11	=11	=11
8Aq	would...	.	.	.	.	.
2B	_	1r;	r	.	.	r
2r	.	.	.	.	.	.
=12	=12	=12	=12	=12	=12	=12
2r	.	1GM	G:maj (G B D)	newline	44.188	r
8e	if	.	.	.	.	.
4.d	I	.	.	.	.	.
=13	=13	=13	=13	=13	=13	=13
2.B	could...	1GM	G:maj (G B D)	.	.	r
4r	.	.	.	.	.	.
=14	=14	=14	=14	=14	=14	=14
4r	.	1GM	G:maj (G B D)	newline	47.549	r
4B	I	.	.	.	.	.
4A	sure-	.	.	.	.	.
8G	-ly	.	.	.	.	.
[8A	would	.	.	.	.	.
=15	=15	=15	=15	=15	=15	=15
8A]	_	1GM	G:maj (G B D)	.	.	r
8G	_	.	.	.	.	.
[4E	_	.	.	.	.	.
2E]	_	.	.	.	.	.
=16	=16	=16	=16	=16	=16	=16
2r	.	1GM	G:maj (G B D)	.	.	r
8A	Mmm	.	.	.	.	.
[8B	_	.	.	.	.	.
4B]	_	.	.	.	.	.
=17	=17	=17	=17	=17	=17	=17
8A	_	1GM	G:maj (G B D)	.	.	r
8G	_	.	.	.	.	.
[4E	_	.	.	.	.	.
2E]	_	.	.	.	.	.
=18	=18	=18	=18	=18	=18	=18
2r	.	1Em	E:min (E G B)	newline	54.024	r
4r	.	.	.	.	.	.
4BB	I'd	.	.	.	.	.
=19	=19	=19	=19	=19	=19	=19
4E	ra-	1Em	E:min (E G B)	.	.	r
4D#	-ther	.	.	.	.	.
4E	be	.	.	.	.	.
8F#	a	.	.	.	.	.
[8G	ham-	.	.	.	.	.
=20	=20	=20	=20	=20	=20	=20
4G]	_	1Em	E:min (E G B)	.	.	r
4F#	-mer	.	.	.	.	.
4G	than	.	.	.	.	.
8A	a	.	.	.	.	.
[8B	nail	.	.	.	.	.
=21	=21	=21	=21	=21	=21	=21
4B_	_	1Em	E:min (E G B)	.	.	r
12B]	_	.	.	.	.	.
12A	_	.	.	.	.	.
[12G	_	.	.	.	.	.
2G]	_	.	.	.	.	.
=22	=22	=22	=22	=22	=22	=22
*	*	*>B_verse	*>B_verse	*>B_verse	*>B_verse	*>B_verse
2r	.	1Em	E:min (E G B)	newline	60.568	r
8e	Yes,	.	.	.	.	.
4.d	I	.	.	.	.	.
=23	=23	=23	=23	=23	=23	=23
8Aq	would...	.	.	.	.	.
2.B	_	1Em	E:min (E G B)	.	.	r
4r	.	.	.	.	.	.
=24	=24	=24	=24	=24	=24	=24
4r	.	1GM	G:maj (G B D)	newline	63.806	r
8e	if	.	.	.	.	.
8d	I	.	.	.	.	.
4e	on-	.	.	.	.	.
8d	-ly	.	.	.	.	.
[8e	could,	.	.	.	.	.
=25	=25	=25	=25	=25	=25	=25
8e]	_	1GM	G:maj (G B D)	.	.	r
8d	_	.	.	.	.	.
[4B	_	.	.	.	.	.
2B_	_	.	.	.	.	.
=26	=26	=26	=26	=26	=26	=26
4B]	_	1GM	G:maj (G B D)	newline	66.928	r
4B	I	.	.	.	.	.
4A	sure-	.	.	.	.	.
8G	-ly	.	.	.	.	.
[8A	would	.	.	.	.	.
=27	=27	=27	=27	=27	=27	=27
8A]	_	1GM	G:maj (G B D)	.	.	r
8G	_	.	.	.	.	.
[4E	_	.	.	.	.	.
2E]	_	.	.	.	.	.
=28	=28	=28	=28	=28	=28	=28
2r	.	1GM	G:maj (G B D)	.	.	r
8A	Mmm	.	.	.	.	.
[8B	_	.	.	.	.	.
4B]	_	.	.	.	.	.
=29	=29	=29	=29	=29	=29	=29
8A	_	1GM	G:maj (G B D)	.	.	r
8G	_	.	.	.	.	.
[4E	_	.	.	.	.	.
2E]	_	.	.	.	.	.
=30	=30	=30	=30	=30	=30	=30
2r	.	1Em	E:min (E G B)	newline	73.436	r
4r	.	.	.	.	.	.
4B	A-	.	.	.	.	.
=31	=31	=31	=31	=31	=31	=31
2.e	-way,	1Em	E:min (E G B)	.	.	r
4d	I'd	.	.	.	.	.
=32	=32	=32	=32	=32	=32	=32
4.e	ra-	1Em	E:min (E G B)	.	.	r
8d	-ther	.	.	.	.	.
4.e	sail	.	.	.	.	.
8g	a-	.	.	.	.	.
=33	=33	=33	=33	=33	=33	=33
4.g	-way,	1Em	E:min (E G B)	.	.	r
8f#	_	.	.	.	.	.
[2e	_	.	.	.	.	.
=34	=34	=34	=34	=34	=34	=34
*	*	*>C_chorus	*>C_chorus	*>C_chorus	*>C_chorus	*>C_chorus
4e]	_	1CM	C:maj6 (C E G A)	newline	79.97	r
4r	.	.	.	.	.	.
16eQ	like	.	.	.	.	.
16f#Q	_	.	.	.	.	.
4g	_	.	.	.	.	.
4e	a	.	.	.	.	.
=35	=35	=35	=35	=35	=35	=35
12d	swan	1CM	C:maj6 (C E G A)	.	.	r
12e	_	.	.	.	.	.
[12d	_	.	.	.	.	.
2.d_	_	.	.	.	.	.
=36	=36	=36	=36	=36	=36	=36
4d]	_	1CM	C:maj6 (C E G A)	.	.	r
4d	that's	.	.	.	.	.
16d#q	here	.	.	.	.	.
4e	_	.	.	.	.	.
4d	and	.	.	.	.	.
=37	=37	=37	=37	=37	=37	=37
[1B	gone	1CM	C:maj6 (C E G A)	.	.	r
=38	=38	=38	=38	=38	=38	=38
2B]	_	1GM	G:maj (G B D)	newline	86.433	r
4r	.	.	.	.	.	.
4B	A	.	.	.	.	.
=39	=39	=39	=39	=39	=39	=39
2.e	man	1GM	G:maj (G B D)	.	.	r
4d	gets	.	.	.	.	.
=40	=40	=40	=40	=40	=40	=40
4e	tied	1GM	G:maj (G B D)	.	.	r
4d	up	.	.	.	.	.
4.e	to	.	.	.	.	.
8d	the	.	.	.	.	.
=41	=41	=41	=41	=41	=41	=41
1e	ground,	1GM	G:maj (G B D)	.	.	r
=42	=42	=42	=42	=42	=42	=42
4r	.	1CM	C:maj6 (C E G A)	newline	92.904	r
4e	he	.	.	.	.	.
4.g	gives	.	.	.	.	.
8e	the	.	.	.	.	.
=43	=43	=43	=43	=43	=43	=43
[1d	world	1CM	C:maj6 (C E G A)	.	.	r
=44	=44	=44	=44	=44	=44	=44
4d]	_	1CM	C:maj6 (C E G A)	.	.	r
4d	its	.	.	.	.	.
4e	sad-	.	.	.	.	.
4d	-dest	.	.	.	.	.
=45	=45	=45	=45	=45	=45	=45
1B	sound,	1CM	C:maj6 (C E G A)	.	.	r
=46	=46	=46	=46	=46	=46	=46
4r	.	1GM	G:maj (G B D)	newline	99.219	r
8Aq	it's	.	.	.	.	.
4B	_	.	.	.	.	.
4A	sad-	.	.	.	.	.
4G	-dest	.	.	.	.	.
=47	=47	=47	=47	=47	=47	=47
8A	sound	1GM	G:maj (G B D)	.	.	r
8G	_	.	.	.	.	.
[4E	_	.	.	.	.	.
2E]	_	.	.	.	.	.
=48	=48	=48	=48	=48	=48	=48
2r	.	1GM	G:maj (G B D)	.	.	r
8Aq	Mmm,	.	.	.	.	.
2B	_	.	.	.	.	.
=49	=49	=49	=49	=49	=49	=49
8Aq	mmm...	.	.	.	.	.
1B	_	1GM	G:maj (G B D)	.	.	r
=50	=50	=50	=50	=50	=50	=50
1r	.	1Em	E:min (E G B)	newline	105.867	r
=51	=51	=51	=51	=51	=51	=51
1r	.	1Em	E:min (E G B)	.	.	r
=52	=52	=52	=52	=52	=52	=52
2r	.	1Em	E:min (E G B)	.	.	r
4r	.	.	.	.	.	.
4BB	I'd	.	.	.	.	.
=53	=53	=53	=53	=53	=53	=53
4E	ra-	1Em	E:min (E G B)	.	.	r
4D#	-ther	.	.	.	.	.
4E	be	.	.	.	.	.
8F#	a	.	.	.	.	.
[8G	fo-	.	.	.	.	.
=54	=54	=54	=54	=54	=54	=54
4G]	_	1Em	E:min (E G B)	newline	112.431	r
4F#	-rest	.	.	.	.	.
4G	than	.	.	.	.	.
4A	a	.	.	.	.	.
=55	=55	=55	=55	=55	=55	=55
4B	street.	1Em	E:min (E G B)	.	.	r
4r	.	.	.	.	.	.
2r	.	.	.	.	.	.
=56	=56	=56	=56	=56	=56	=56
*	*	*>B_verse	*>B_verse	*>B_verse	*>B_verse	*>B_verse
2r	.	1Em	E:min (E G B)	newline	115.673	r
8e	Yes,	.	.	.	.	.
4.d	I	.	.	.	.	.
=57	=57	=57	=57	=57	=57	=57
8Aq	would...	.	.	.	.	.
2B	_	1Em	E:min (E G B)	.	.	r
2r	.	.	.	.	.	.
=58	=58	=58	=58	=58	=58	=58
2r	.	1GM	G:maj (G B D)	newline	118.905	r
8e	if	.	.	.	.	.
[8d	I	.	.	.	.	.
8d]	_	.	.	.	.	.
[8e	could,	.	.	.	.	.
=59	=59	=59	=59	=59	=59	=59
8e]	_	1GM	G:maj (G B D)	.	.	r
[8d	_	.	.	.	.	.
8d]	_	.	.	.	.	.
[8B	_	.	.	.	.	.
2B_	_	.	.	.	.	.
=60	=60	=60	=60	=60	=60	=60
4B]	_	1GM	G:maj (G B D)	newline	122.2	r
4B	I	.	.	.	.	.
4A	sure-	.	.	.	.	.
8G	-ly	.	.	.	.	.
[8A	would	.	.	.	.	.
=61	=61	=61	=61	=61	=61	=61
8A]	_	1GM	G:maj (G B D)	.	.	r
8G	_	.	.	.	.	.
2.E	_	.	.	.	.	.
=62	=62	=62	=62	=62	=62	=62
2r	.	1GM	G:maj (G B D)	.	.	r
4r	.	.	.	.	.	.
4BB	I'd	.	.	.	.	.
=63	=63	=63	=63	=63	=63	=63
4E	ra-	1GM	G:maj (G B D)	.	.	r
8D#	-ther	.	.	.	.	.
[8E	feel	.	.	.	.	.
4E]	_	.	.	.	.	.
8F#	the	.	.	.	.	.
[8G	earth	.	.	.	.	.
=64	=64	=64	=64	=64	=64	=64
4G]	_	1Em	E:min (E G B)	newline	128.769	r
8F#	be	.	.	.	.	.
[8G	neath	.	.	.	.	.
8G]	_	.	.	.	.	.
[8A	my	.	.	.	.	.
4A]	_	.	.	.	.	.
=65	=65	=65	=65	=65	=65	=65
4B	feet.	1Em	E:min (E G B)	.	.	r
4r	.	.	.	.	.	.
2r	.	.	.	.	.	.
=66	=66	=66	=66	=66	=66	=66
*	*	*>B_verse	*>B_verse	*>B_verse	*>B_verse	*>B_verse
2r	.	1Em	E:min (E G B)	newline	131.977	r
8e	Yes,	.	.	.	.	.
4.d	I	.	.	.	.	.
=67	=67	=67	=67	=67	=67	=67
8Aq	would...	.	.	.	.	.
2.B	_	1Em	E:min (E G B)	.	.	r
4r	.	.	.	.	.	.
=68	=68	=68	=68	=68	=68	=68
6r	.	1GM	G:maj (G B D)	newline	135.15	r
6e	if	.	.	.	.	.
6d	I	.	.	.	.	.
4e	on-	.	.	.	.	.
8d	-ly	.	.	.	.	.
[8e	could,	.	.	.	.	.
=69	=69	=69	=69	=69	=69	=69
8e]	_	1GM	G:maj (G B D)	.	.	r
[8d	_	.	.	.	.	.
8d]	_	.	.	.	.	.
[8B	_	.	.	.	.	.
2B_	_	.	.	.	.	.
=70	=70	=70	=70	=70	=70	=70
4B]	_	1GM	G:maj (G B D)	newline	138.459	r
4B	I	.	.	.	.	.
4A	sure-	.	.	.	.	.
8G	-ly	.	.	.	.	.
8A	would	.	.	.	.	.
=71	=71	=71	=71	=71	=71	=71
8A	_	1GM	G:maj (G B D)	.	.	r
[8G	_	.	.	.	.	.
4G]	_	.	.	.	.	.
2E	_	.	.	.	.	.
=72	=72	=72	=72	=72	=72	=72
1r	.	1GM	G:maj (G B D)	.	.	r
=73	=73	=73	=73	=73	=73	=73
1r	.	1GM	G:maj (G B D)	.	.	r
=74	=74	=74	=74	=74	=74	=74
1r	.	1Em	E:min (E G B)	newline	145.073	voice
=75	=75	=75	=75	=75	=75	=75
1r	.	1Em	E:min (E G B)	.	.	voice
=76	=76	=76	=76	=76	=76	=76
*	*	*>C_chorus	*>C_chorus	*>C_chorus	*>C_chorus	*>C_chorus
1r	.	1CM	C:maj6 (C E G A)	newline	148.307	flute
=77	=77	=77	=77	=77	=77	=77
1r	.	1CM	C:maj6 (C E G A)	.	.	flute
=78	=78	=78	=78	=78	=78	=78
1r	.	1CM	C:maj6 (C E G A)	.	.	flute
=79	=79	=79	=79	=79	=79	=79
1r	.	1CM	C:maj6 (C E G A)	.	.	flute
=80	=80	=80	=80	=80	=80	=80
1r	.	1GM	G:maj (G B D)	newline	154.802	flute
=81	=81	=81	=81	=81	=81	=81
1r	.	1GM	G:maj (G B D)	.	.	flute
=82	=82	=82	=82	=82	=82	=82
1r	.	1GM	G:maj (G B D)	.	.	flute
=83	=83	=83	=83	=83	=83	=83
1r	.	1GM	G:maj (G B D)	.	.	flute
=84	=84	=84	=84	=84	=84	=84
1r	.	1CM	C:maj6 (C E G A)	newline	161.365	flute
=85	=85	=85	=85	=85	=85	=85
1r	.	1CM	C:maj6 (C E G A)	.	.	flute
=86	=86	=86	=86	=86	=86	=86
1r	.	1CM	C:maj6 (C E G A)	.	.	flute
=87	=87	=87	=87	=87	=87	=87
1r	.	1CM	C:maj6 (C E G A)	.	.	flute
=88	=88	=88	=88	=88	=88	=88
1r	.	1GM	G:maj (G B D)	newline	167.736	flute
=89	=89	=89	=89	=89	=89	=89
1r	.	1GM	G:maj (G B D)	.	.	flute
=90	=90	=90	=90	=90	=90	=90
1r	.	1GM	G:maj (G B D)	.	.	flute
=91	=91	=91	=91	=91	=91	=91
1r	.	1GM	G:maj (G B D)	.	.	flute
=92	=92	=92	=92	=92	=92	=92
1r	.	1Em	E:min (E G B)	newline	174.322	flute
=93	=93	=93	=93	=93	=93	=93
1r	.	1Em	E:min (E G B)	.	.	flute
=94	=94	=94	=94	=94	=94	=94
r;	.	1Em	E:min (E G B)	.	.	flute
*-	*-	*	*
=92	=92	=92	=92	=92
1Em	E:min (E G B)	.	.	flute
=93	=93	=93	=93	=93
1Em	E:min (E G B)	newline	181.031	flute
=94	=94	=94	=94	=94
1Em	E:min (E G B)	.	.	flute
1r;	r	.	185.063	r
1r;	r	.	188.526	r
*-	*-	*-	*-	*-
!!!BillboardChartDate: 1970/09/26
!!!BillboardPeak: 18
!!!BillboardWeeksOnChart: 11
!!!COC: Simon & Garfunkel
!!!ENC: Nathaniel Condit-Schultz
!!!EST: Awating manual error checking and editing.
!!!OTL: El Condor Pasa
!!!RDF**chordsym: original McGill chord annotation + (implied pitch class set, with bass pitch in first position)
!!!RDF**harmony: **recip + pitch class of root + harmonic quality
!!!RDF**leadinstrument: original McGill primary instrumentation annotation
!!!RDF**phrase: newline = linebreak in original McGill transcription
!!!RDF**timestamp: McGill audio timestamp in seconds
!!!RDT: 2017/01/12/
!!!SampleActualRank: 38
!!!SampleID#: 1261
!!!SampleTargetRank: 38
